icons/favicon.svg

<svg width="32" height="32" viewBox="0 0 32 32" fill="none" xmlns="http://www.w3.org/2000/svg">
<rect width="32" height="32" fill="white"/>
<path d="M9.57707 8.29633C9.92898 7.76472 10.3192 7.31449 10.8543 6.95787C11.5963 6.46352 12.4802 6.21481 13.3656 6.41082C14.0794 6.56889 14.66 7.04897 15.051 7.64793C15.4532 8.49538 15.8059 9.33905 16.0671 10.2413C16.1204 10.4248 16.1881 10.7897 16.2632 11.1945C16.3963 11.912 16.5527 12.7552 16.6934 12.9356C16.8212 14.1776 15.9003 15.9999 15.1281 16.9489C14.9432 17.179 14.7402 17.3943 14.5213 17.5929C15.8698 19.7984 16.6334 22.3772 16.8774 24.947C17.4732 22.9508 18.0871 20.96 18.72 18.975C17.7143 17.4237 17.8011 14.9012 18.1786 13.1545C18.5542 11.4151 19.3949 9.52421 20.9554 8.5457C21.1289 8.43718 21.3091 8.33971 21.4912 8.24526C22.5931 9.6196 23.0069 11.1469 22.8162 12.8929C22.5607 15.2384 21.2442 17.4315 19.4055 18.8884L19.3292 18.9485C19.1832 19.4679 19.0151 19.9855 18.8471 20.5034C18.6166 21.2132 18.386 21.9234 18.2119 22.6395C18.222 22.6355 18.2322 22.6316 18.2423 22.6277C18.2612 22.6205 18.2801 22.6132 18.2987 22.6049C18.5072 22.5117 18.8802 21.9329 19.1909 21.4508C19.3503 21.2034 19.4934 20.9814 19.5894 20.8635C21.208 18.8743 23.4073 17.6862 26.0125 17.7424C26.5025 17.7528 27.0897 17.7713 27.5558 17.9085C27.7808 17.9745 27.8188 18.0099 27.9409 18.2051C27.8665 19.584 26.0506 21.7633 25.0087 22.6985C22.861 24.6262 20.1928 25.7353 17.4951 26.6563C17.3853 26.6319 17.3242 26.6183 17.2005 26.5908L16.2563 26.3811L15.7706 26.2732L15.3236 26.1379L15.3541 26.0584C15.2984 25.8413 14.9776 25.7805 14.7526 25.7378L14.7497 25.7373C14.7292 25.7334 14.7094 25.7297 14.6908 25.726C14.4274 25.6735 14.161 25.622 13.8928 25.5702L13.8885 25.5694C10.952 25.0021 7.79606 24.3925 5.85527 21.9138C5.52363 21.4903 4.94034 20.6518 5.00823 20.1199C5.45772 19.7363 6.78393 19.6026 7.35943 19.5703C10.2711 19.4069 13.0205 20.9562 14.8298 23.1465C15.0099 23.3642 15.1737 23.6326 15.3384 23.9026C15.5705 24.2828 15.8044 24.666 16.0881 24.9148L16.2006 24.706C15.8851 22.2386 15.3112 20.0289 13.9508 17.9249C12.9967 18.2069 12.1118 18.2882 11.1205 18.1068C10.4872 17.9908 9.46532 17.6723 9.08282 17.127C8.97171 16.952 8.33044 16.6354 7.70364 16.326C7.21759 16.086 6.74025 15.8504 6.52567 15.6884C5.61905 15.004 5.1707 14.095 5.0075 12.9855L5.00365 12.892C4.96265 11.6559 5.26195 10.5521 6.13967 9.64271C7.06063 8.68854 8.28046 8.31831 9.57707 8.29633Z" fill="#353C3A"/>
<path d="M9.5771 8.29633C9.92904 7.76471 10.3192 7.31449 10.8544 6.95785C11.5963 6.46351 12.4802 6.21481 13.3656 6.41082C14.0794 6.56888 14.6601 7.04896 15.051 7.64792C13.8281 8.00113 13.411 8.47009 12.7019 9.51946C12.5154 10.0305 12.3557 10.5653 12.3105 11.1101C13.1709 11.8667 13.7238 12.7181 13.8001 13.8898C13.8093 14.0298 13.8197 14.0559 13.743 14.1693L13.4304 14.0771C13.1517 14.2801 13.0819 14.6261 13.03 14.9504C12.9373 15.5296 12.9237 16.1541 12.9351 16.7403C12.2172 16.5306 11.5852 16.4579 10.8381 16.4926C10.2232 16.6444 9.64306 16.8214 9.08283 17.1269C8.8856 16.8162 7.01693 16.0592 6.52572 15.6884C5.61907 15.004 5.17075 14.095 5.00756 12.9855L5.00365 12.892C4.96266 11.6558 5.26198 10.5521 6.13974 9.64271C7.06069 8.68854 8.28048 8.3183 9.5771 8.29633Z" fill="#EAE9E8"/>
<path d="M9.5771 8.29633C9.92904 7.76471 10.3192 7.31449 10.8544 6.95785C11.5963 6.46351 12.4802 6.21481 13.3656 6.41082C14.0794 6.56888 14.6601 7.04896 15.051 7.64792C13.8281 8.00113 13.411 8.47009 12.7019 9.51946C12.5154 10.0305 12.3557 10.5653 12.3105 11.1101L11.4516 10.7644C11.1089 10.7736 10.4338 10.7049 10.1403 10.8527L9.76174 11.0363C9.6158 11.1687 9.44535 11.3683 9.27758 11.4646L8.96044 12.011L8.7408 12.0245C7.71986 12.0062 6.75593 12.1173 5.82154 12.5571C5.5574 12.6815 5.28019 12.9029 5.00756 12.9855L5.00365 12.892C4.96266 11.6558 5.26198 10.5521 6.13974 9.64271C7.06069 8.68854 8.28048 8.3183 9.5771 8.29633Z" fill="#DB8778"/>
<path d="M11.4521 10.7645C11.6085 10.3466 11.7402 9.83273 12.0631 9.51394C12.3545 9.39639 12.4131 9.43491 12.7024 9.51946C12.516 10.0305 12.3562 10.5653 12.311 11.1102L11.4521 10.7645Z" fill="#353C3A"/>
<path d="M9.76296 11.0364C9.45439 10.8247 9.0995 10.6086 8.84975 10.3264C8.68779 10.1435 8.60294 9.94449 8.61429 9.70064L8.77663 9.62076C9.46002 9.77026 9.75219 10.3279 10.1415 10.8527L9.76296 11.0364Z" fill="#353C3A"/>
<path d="M8.7415 12.0244C8.6129 12.0085 8.46801 11.9971 8.34323 11.9604C8.13475 11.8991 8.10119 11.8129 8.02197 11.6342C8.11091 11.5098 8.13217 11.4755 8.27335 11.4136C8.61462 11.264 8.94397 11.3398 9.27827 11.4646L8.96113 12.0109L8.7415 12.0244Z" fill="#353C3A"/>
<path d="M10.4439 8.85068C10.5592 8.90042 10.6724 8.95976 10.7453 9.06647C11.0378 9.49491 10.9888 10.3502 10.9357 10.8466L10.5292 10.7262C10.4735 10.6653 10.4304 10.6169 10.396 10.5409C10.1565 10.011 10.2554 9.37802 10.4439 8.85068Z" fill="#353C3A"/>
<path d="M8.74106 12.0245L8.96069 12.011C8.69302 13.021 8.54869 14.0426 9.10911 14.9917C9.5091 15.6691 10.158 16.1251 10.8383 16.4926C10.2235 16.6444 9.64332 16.8214 9.08309 17.1269C8.88586 16.8162 7.01719 16.0592 6.52597 15.6884C5.61933 15.0039 5.17101 14.0949 5.00781 12.9855C5.28044 12.9029 5.55765 12.6815 5.8218 12.5571C6.75618 12.1173 7.72012 12.0062 8.74106 12.0245Z" fill="#EBB19F"/>
<path d="M18.2119 22.6395C18.2405 22.628 18.2701 22.6177 18.2987 22.6049C18.6142 22.4638 19.3063 21.2111 19.5894 20.8635C21.208 18.8743 23.4072 17.6862 26.0125 17.7424C26.5024 17.7528 27.0896 17.7713 27.5558 17.9085C27.7808 17.9745 27.8189 18.0099 27.9409 18.2051C27.8665 19.584 26.0506 21.7633 25.0087 22.6985C22.861 24.6262 20.1928 25.7353 17.4951 26.6563C18.8964 24.8859 20.536 23.1487 22.29 21.7255C22.9001 21.2304 25.4767 19.6571 25.6636 19.3334C25.5806 19.2795 25.5692 19.2452 25.4662 19.2601C23.1365 19.5982 18.6485 24.3734 17.2549 26.1789C17.4312 24.9496 17.7344 23.7886 18.2119 22.6395Z" fill="#97A898"/>
<path d="M15.3238 26.1379L15.3543 26.0584C15.2933 25.8205 14.9139 25.7703 14.691 25.726C11.542 25.0983 7.97453 24.6201 5.85543 21.9138C5.5238 21.4903 4.9405 20.6518 5.00837 20.1199C5.45793 19.7363 6.7841 19.6026 7.35958 19.5703C10.2713 19.4068 13.0207 20.9562 14.83 23.1465C15.2637 23.6709 15.6031 24.4892 16.0883 24.9148L16.2008 24.706C16.2503 24.9998 16.2704 25.231 16.2275 25.5293C15.8776 25.4175 15.3247 24.7008 14.9958 24.441C13.14 22.9733 9.88486 20.9772 7.42869 21.0476L7.36521 21.134C7.97701 21.6093 9.01081 21.7982 9.74053 22.0507C11.9419 22.8126 14.3964 24.2572 15.7994 26.1572L15.7241 26.2416C15.6021 26.2139 15.4305 26.1981 15.3238 26.1379Z" fill="#97A898"/>
<path d="M21.491 8.24527C22.593 9.6196 23.0067 11.1469 22.8161 12.8929C22.5606 15.2384 21.2442 17.4315 19.4053 18.8884L19.3291 18.9485C19.7542 16.8556 20.0697 14.6495 20.6932 12.6114C20.8295 12.168 21.1326 11.3674 20.9077 10.9453L20.7504 11.0081C19.7904 12.5239 19.3043 16.9877 18.7199 18.975C17.7142 17.4237 17.801 14.9012 18.1785 13.1545C18.5541 11.4152 19.3948 9.52422 20.9553 8.5457C21.1288 8.43719 21.309 8.33971 21.491 8.24527Z" fill="#97A898"/>
<path d="M12.702 9.51945C13.4111 8.47009 13.8281 8.00113 15.0511 7.64792C15.4533 8.49538 15.806 9.33904 16.0672 10.2413C16.215 10.7503 16.4733 12.6534 16.6935 12.9356C15.9119 13.0931 15.3695 13.5126 14.9348 14.1728C14.6928 14.5406 14.5034 14.9597 14.3284 15.3633C14.1348 15.006 13.8215 14.5651 13.7431 14.1693C13.8197 14.0559 13.8094 14.0298 13.8002 13.8898C13.7238 12.7181 13.171 11.8667 12.3105 11.1101C12.3557 10.5653 12.5155 10.0305 12.702 9.51945Z" fill="#EBB19F"/>
</svg>

<svg xmlns="http://www.w3.org/2000/svg" width="32" height="32" fill="none"><path fill="#fff" d="M0 0h32v32H0z"/><path fill="#353c3a" d="M9.577 8.296c.352-.531.742-.982 1.277-1.338.742-.494 1.626-.743 2.512-.547.713.158 1.294.638 1.685 1.237.402.847.755 1.691 1.016 2.593.053.184.121.549.196.954.133.717.29 1.56.43 1.74.128 1.243-.793 3.065-1.565 4.014a5.6 5.6 0 0 1-.607.644c1.349 2.205 2.112 4.784 2.356 7.354q.894-2.994 1.843-5.972c-1.006-1.551-.919-4.074-.541-5.82.375-1.74 1.216-3.63 2.776-4.61.174-.108.354-.205.536-.3 1.102 1.375 1.516 2.902 1.325 4.648-.255 2.345-1.572 4.538-3.41 5.995l-.077.06c-.146.52-.314 1.037-.482 1.555-.23.71-.461 1.42-.635 2.137l.03-.012.057-.023c.208-.093.581-.672.892-1.154.16-.248.302-.47.398-.588 1.619-1.989 3.818-3.177 6.424-3.12.49.01 1.077.028 1.543.166.225.066.263.1.385.296-.075 1.379-1.89 3.558-2.932 4.494-2.148 1.927-4.816 3.036-7.514 3.957l-.294-.065-.945-.21-.485-.108-.447-.135.03-.08c-.056-.217-.376-.277-.601-.32h-.003l-.06-.012-.797-.156h-.005c-2.936-.568-6.092-1.178-8.033-3.656-.331-.424-.915-1.262-.847-1.794.45-.384 1.776-.517 2.351-.55 2.912-.163 5.662 1.386 7.47 3.576.18.218.345.487.51.757.231.38.465.763.75 1.012l.112-.209c-.316-2.467-.89-4.677-2.25-6.781-.954.282-1.84.363-2.83.182-.634-.116-1.656-.435-2.038-.98-.111-.175-.753-.492-1.38-.801-.485-.24-.963-.476-1.177-.638-.907-.684-1.355-1.593-1.518-2.703l-.004-.093c-.041-1.236.258-2.34 1.136-3.25.92-.953 2.14-1.324 3.437-1.346"/><path fill="#eae9e8" d="M9.577 8.296c.352-.531.742-.982 1.277-1.338.742-.494 1.626-.743 2.512-.547.713.158 1.294.638 1.685 1.237-1.223.353-1.64.822-2.35 1.871-.186.511-.345 1.046-.39 1.591.86.757 1.413 1.608 1.49 2.78.008.14.019.166-.058.28l-.313-.093c-.278.203-.348.55-.4.873-.093.58-.106 1.204-.095 1.79a6.1 6.1 0 0 0-2.097-.247c-.615.151-1.195.328-1.755.634-.197-.31-2.066-1.068-2.557-1.439-.907-.684-1.355-1.593-1.518-2.703l-.004-.093c-.041-1.236.258-2.34 1.136-3.25.92-.953 2.14-1.324 3.437-1.346"/><path fill="#db8778" d="M9.577 8.296c.352-.531.742-.982 1.277-1.338.742-.494 1.626-.743 2.512-.547.713.158 1.294.638 1.685 1.237-1.223.353-1.64.822-2.35 1.871-.186.511-.345 1.046-.39 1.591l-.86-.346c-.342.01-1.017-.06-1.31.089l-.38.183c-.145.133-.316.332-.483.429l-.318.546-.22.014c-1.02-.019-1.984.092-2.918.532-.265.124-.542.346-.814.428l-.004-.093c-.041-1.236.258-2.34 1.136-3.25.92-.953 2.14-1.324 3.437-1.346"/><path fill="#353c3a" d="M11.452 10.765c.156-.418.288-.932.611-1.251.291-.118.35-.08.64.005-.187.511-.347 1.046-.392 1.591zM9.763 11.036c-.309-.211-.663-.427-.913-.71a.85.85 0 0 1-.236-.625l.163-.08c.683.15.975.707 1.365 1.232zM8.742 12.024c-.13-.015-.274-.027-.399-.064-.208-.06-.242-.147-.321-.326.089-.124.11-.159.251-.22.342-.15.671-.074 1.005.05l-.317.547zM10.444 8.85c.115.05.228.11.301.216.293.429.244 1.284.19 1.78l-.406-.12a.7.7 0 0 1-.133-.185c-.24-.53-.14-1.163.048-1.69"/><path fill="#ebb19f" d="m8.741 12.025.22-.014c-.268 1.01-.412 2.032.148 2.98.4.678 1.049 1.134 1.73 1.502-.616.151-1.196.328-1.756.634-.197-.31-2.066-1.068-2.557-1.439-.907-.684-1.355-1.593-1.518-2.703.272-.082.55-.303.814-.428.934-.44 1.898-.55 2.92-.533"/><path fill="#97a898" d="M18.212 22.64q.044-.017.087-.035c.315-.141 1.007-1.394 1.29-1.742 1.619-1.989 3.818-3.177 6.424-3.12.49.01 1.077.028 1.543.166.225.066.263.1.385.296-.075 1.379-1.89 3.558-2.932 4.494-2.148 1.927-4.816 3.036-7.514 3.957 1.401-1.77 3.041-3.507 4.795-4.93.61-.496 3.187-2.069 3.374-2.393-.083-.053-.095-.088-.198-.073-2.33.338-6.818 5.113-8.211 6.919.176-1.23.48-2.39.957-3.54M15.324 26.138l.03-.08c-.06-.238-.44-.288-.663-.332-3.149-.628-6.716-1.106-8.836-3.812-.331-.424-.915-1.262-.847-1.794.45-.384 1.776-.517 2.352-.55 2.911-.163 5.66 1.386 7.47 3.576.434.525.773 1.343 1.258 1.769l.113-.209c.05.294.07.525.026.823-.35-.111-.902-.828-1.231-1.088-1.856-1.468-5.111-3.464-7.567-3.393l-.064.086c.612.475 1.646.664 2.376.917 2.2.762 4.655 2.206 6.058 4.106l-.075.085c-.122-.028-.293-.044-.4-.104M21.491 8.245c1.102 1.375 1.516 2.902 1.325 4.648-.255 2.345-1.572 4.538-3.41 5.995l-.077.06c.425-2.092.74-4.299 1.364-6.337.136-.443.44-1.244.215-1.666l-.158.063c-.96 1.516-1.446 5.98-2.03 7.967-1.006-1.551-.919-4.074-.541-5.82.375-1.74 1.216-3.63 2.776-4.61.174-.108.354-.205.536-.3"/><path fill="#ebb19f" d="M12.702 9.52c.71-1.05 1.126-1.519 2.35-1.872.401.847.754 1.691 1.015 2.593.148.51.406 2.412.627 2.695-.782.157-1.324.577-1.76 1.237-.241.368-.43.787-.606 1.19-.193-.357-.506-.798-.585-1.194.077-.113.066-.14.057-.28-.076-1.17-.629-2.022-1.49-2.779.046-.545.205-1.08.392-1.59"/></svg>
